src/assets/background/wave_line/wave_line_service.svg

<svg width="525" height="352" viewBox="0 0 525 352" fill="none" xmlns="http://www.w3.org/2000/svg">
<path d="M0 30.0036C15.5403 18.8862 55.6748 22.82 79.7284 68.487C109.796 125.571 142.903 137.116 199.659 137.116C255.821 137.116 299.657 170.468 316.211 218.572C332.765 266.676 395.264 244.869 433.439 262.828C463.979 277.195 483.1 327.822 488.843 351.34" stroke="#E3E6FF"/>
<path d="M0 6.60509C16.6579 -5.32185 59.6788 -1.10153 85.4623 47.8907C117.692 109.131 153.18 121.516 214.018 121.516C274.22 121.516 321.208 157.297 338.952 208.904C356.697 260.511 423.69 237.116 464.611 256.383C497.347 271.796 517.844 326.109 524 351.34" stroke="#E3E6FF"/>
<path d="M0 53.4015C14.4227 43.0936 51.6708 46.741 73.9945 89.0827C101.899 142.01 132.626 152.714 185.3 152.714C237.423 152.714 278.107 183.638 293.47 228.239C308.833 272.841 366.837 252.621 402.267 269.273C430.611 282.594 448.357 329.534 453.687 351.339" stroke="#E3E6FF"/>
</svg>

<svg width="525" height="352" fill="none" xmlns="http://www.w3.org/2000/svg">
	<path d="M0 30.004c15.54-11.118 55.675-7.184 79.728 38.483 30.068 57.084 63.175 68.629 119.931 68.629 56.162 0 99.998 33.352 116.552 81.456 16.554 48.104 79.053 26.297 117.228 44.256 30.54 14.367 49.661 64.994 55.404 88.512" stroke="#E3E6FF"/>
	<path d="M0 6.605C16.658-5.322 59.679-1.102 85.462 47.891c32.23 61.24 67.718 73.625 128.556 73.625 60.202 0 107.19 35.781 124.934 87.388 17.745 51.607 84.738 28.212 125.659 47.479 32.736 15.413 53.233 69.726 59.389 94.957" stroke="#E3E6FF"/>
	<path d="M0 53.401c14.423-10.307 51.67-6.66 73.995 35.682 27.904 52.927 58.631 63.631 111.305 63.631 52.123 0 92.807 30.924 108.17 75.525 15.363 44.602 73.367 24.382 108.797 41.034 28.344 13.321 46.09 60.261 51.42 82.066" stroke="#E3E6FF"/>
</svg>
